X: 80
M:6/8
L:1/8
K:Dmix % one sharp in the book
uA"^Segno"|:vBAF ADD|FDD ADD|BAF ADD|FEE EFA|\
|:v(d/e/f)u.e d2B|AFA AFA|(d/e/f).e d2f|ede fdB|\
(d/e/f).e d2B|AFA ABd|gfe fdB|AGF EFA"^Segno""_D.S.":|


